folder-text.svg

<svg fill="currentColor" viewBox="0 0 24 24"><path d="M20 6h-8l-2-2H4a2 2 0 0 0-2 2v12a2 2 0 0 0 2 2h16a2 2 0 0 0 2-2V8a2 2 0 0 0-2-2m-5 10H6v-2h9zm3-4H6v-2h12z"/></svg>

<svg  viewBox="0 0 24 24" fill="currentColor"><path  d="M20,6H12L10,4H4A2,2 0 0,0 2,6V18A2,2 0 0,0 4,20H20A2,2 0 0,0 22,18V8A2,2 0 0,0 20,6M15,16H6V14H15V16M18,12H6V10H18V12Z"/></svg>
